X:1204
T:Barrowburn Reel
C:Addie Harper
R:reel
H:Scottish
Z:id:hn-reel-797
M:C|
K:D
D2 (3FED FAAd|~B3A BcdB|~A3B d2de|fedB AFEF|
D2 (3FED FAAd|~B3A Bcde|f2af egfe|1 dBAB dBAF:|2 dBAB d2cd||
|:~e3f ecBA|~f3g fdBA|~g3a gece|~a3g f2ef|
~g3a gece|~a3g f2ef|g2ag f2ed|1 BAAB d2cd:|2 BAAB dBAF||


